static/images/board/JanggiBrown.svg

<svg height="1002.0001" viewBox="0 0 1001.9998 1002.0001" width="1001.9998" xmlns="http://www.w3.org/2000/svg" xmlns:xlink="http://www.w3.org/1999/xlink"><defs><path id="a" d="m194.005 267.05v53.557"/><path id="b" d="m220.784 293.83h-53.557"/><path id="c" d="m194.004 267.03.022 26.606-26.96-.03"/></defs><g stroke="#000"><g transform="matrix(1.1108645 0 0 1.0000001 1.110865 1)"><g stroke-width="2"><path d="m0 0h900v1000h-900z" fill="#c79e59"/><path d="m0 0h900v1000h-900z" fill="none"/><path d="m50 50h800m-800 100h800m-800 100h800m-800 100h800m-800 100h800m-800 100h800m-800 100h800m-800 100h800m-800 100h800m-800 100h800"/><path d="m50 50v900"/></g><path d="m150 50v500m100-500v500m100-500v500m100-500v500m100-500v500m100-500v500m100-500v500" stroke-width="2.5"/><g stroke-width="2"><path d="m850 50v900m-700-400v400"/><path d="m250 550v400m100-400v400m100-400v400m100-400v400m100-400v400m100-400v400m-400-900 200 200"/><path d="m350 250 200-200m-200 700 200 200"/><path d="m350 950 200-200"/></g></g><g fill="none"><g stroke-width="4.777" transform="matrix(.41106871 -.37004404 .41106871 .37004404 -32.868881 213.69005)"><use height="100%" width="100%" xlink:href="#a"/><use height="100%" width="100%" xlink:href="#b"/></g><use height="100%" stroke-width="4.791" transform="matrix(.40985898 .36895504 .40985898 -.36895504 744.38163 387.60083)" width="100%" xlink:href="#c"/><g stroke-width="4.777" transform="matrix(.41106871 -.37004404 .41106871 .37004404 78.498106 313.83646)"><use height="100%" width="100%" xlink:href="#a"/><use height="100%" width="100%" xlink:href="#b"/></g><g stroke-width="4.777" transform="matrix(.41106871 -.37004404 .41106871 .37004404 633.58626 214.0927)"><use height="100%" width="100%" xlink:href="#a"/><use height="100%" width="100%" xlink:href="#b"/></g><g stroke-width="4.777" transform="matrix(.41106871 -.37004404 .41106871 .37004404 522.7414 314.14672)"><use height="100%" width="100%" xlink:href="#a"/><use height="100%" width="100%" xlink:href="#b"/></g><g stroke-width="4.777" transform="matrix(.41106871 -.37004404 .41106871 .37004404 300.35602 313.92871)"><use height="100%" width="100%" xlink:href="#a"/><use height="100%" width="100%" xlink:href="#b"/></g><use height="100%" stroke-width="4.791" transform="matrix(-.40985898 .36895504 -.40985898 -.36895504 257.33599 387.71907)" width="100%" xlink:href="#c"/><g transform="matrix(1.1108645 0 0 -1.0000001 1.031848 1000.7318)"><g stroke-width="4.777" transform="matrix(.370044 -.370044 .370044 .370044 -30.588562 212.69002)"><use height="100%" width="100%" xlink:href="#a"/><use height="100%" width="100%" xlink:href="#b"/></g><use height="100%" stroke-width="4.791" transform="matrix(.368955 .368955 .368955 -.368955 669.09224 386.60079)" width="100%" xlink:href="#c"/><g stroke-width="4.777"><g transform="matrix(.370044 -.370044 .370044 .370044 69.663983 312.83642)"><use height="100%" width="100%" xlink:href="#a"/><use height="100%" width="100%" xlink:href="#b"/></g><g transform="matrix(.370044 -.370044 .370044 .370044 569.35426 213.09268)"><use height="100%" width="100%" xlink:href="#a"/><use height="100%" width="100%" xlink:href="#b"/></g><g transform="matrix(.370044 -.370044 .370044 .370044 469.57173 313.14669)"><use height="100%" width="100%" xlink:href="#a"/><use height="100%" width="100%" xlink:href="#b"/></g><g transform="matrix(.370044 -.370044 .370044 .370044 269.38045 312.92867)"><use height="100%" width="100%" xlink:href="#a"/><use height="100%" width="100%" xlink:href="#b"/></g></g><use height="100%" stroke-width="4.791" transform="matrix(-.368955 .368955 -.368955 -.368955 230.65382 386.71902)" width="100%" xlink:href="#c"/></g></g></g></svg>

<svg xmlns="http://www.w3.org/2000/svg" xmlns:xlink="http://www.w3.org/1999/xlink" viewBox="0 0 900 1000"><style><![CDATA[.B{stroke:#000}.C{fill:none}.D{stroke-width:4.777}.E{stroke-width:4.791}]]></style><g class="B"><g stroke-width="2"><path d="M0 0h900v1000H0z" fill="#c79e59"/><path d="M0 0h900v1000H0z" class="C"/><path d="M50 50h800M50 150h800M50 250h800M50 350h800M50 450h800M50 550h800M50 650h800M50 750h800M50 850h800M50 950h800"/><path d="M50 50v900"/></g><path d="M150 50v500M250 50v500M350 50v500M450 50v500M550 50v500M650 50v500M750 50v500" stroke-width="2.5"/><g stroke-width="2"><path d="M850 50v900M150 550v400"/><path d="M250 550v400m100-400v400m100-400v400m100-400v400m100-400v400m100-400v400M350 50l200 200"/><path d="M350 250L550 50M350 750l200 200"/><path d="M350 950l200-200"/></g></g><g transform="matrix(.370044 -.370044 .370044 .370044 -30.588562 212.69002)" class="B C D"><use xlink:href="#B"/><use xlink:href="#C"/></g><use xlink:href="#D" transform="matrix(.368955 .368955 .368955 -.368955 669.09224 386.60079)" class="B C E"/><g transform="matrix(.370044 -.370044 .370044 .370044 69.663983 312.83642)" class="B C D"><use xlink:href="#B"/><use xlink:href="#C"/></g><g transform="matrix(.370044 -.370044 .370044 .370044 569.35426 213.09268)" class="B C D"><use xlink:href="#B"/><use xlink:href="#C"/></g><g transform="matrix(.370044 -.370044 .370044 .370044 469.57173 313.14669)" class="B C D"><use xlink:href="#B"/><use xlink:href="#C"/></g><g transform="matrix(.370044 -.370044 .370044 .370044 269.38045 312.92867)" class="B C D"><use xlink:href="#B"/><use xlink:href="#C"/></g><use xlink:href="#D" transform="matrix(-.368955 .368955 -.368955 -.368955 230.65382 386.71902)" class="B C E"/><g transform="matrix(1 0 0 -1 -.071131 999.73163)" class="B C"><g transform="matrix(.370044 -.370044 .370044 .370044 -30.588562 212.69002)" class="D"><use xlink:href="#B"/><use xlink:href="#C"/></g><use xlink:href="#D" transform="matrix(.368955 .368955 .368955 -.368955 669.09224 386.60079)" class="E"/><g transform="matrix(.370044 -.370044 .370044 .370044 69.663983 312.83642)" class="D"><use xlink:href="#B"/><use xlink:href="#C"/></g><g transform="matrix(.370044 -.370044 .370044 .370044 569.35426 213.09268)" class="D"><use xlink:href="#B"/><use xlink:href="#C"/></g><g transform="matrix(.370044 -.370044 .370044 .370044 469.57173 313.14669)" class="D"><use xlink:href="#B"/><use xlink:href="#C"/></g><g transform="matrix(.370044 -.370044 .370044 .370044 269.38045 312.92867)" class="D"><use xlink:href="#B"/><use xlink:href="#C"/></g><use xlink:href="#D" transform="matrix(-.368955 .368955 -.368955 -.368955 230.65382 386.71902)" class="E"/></g><defs ><path id="B" d="M194.005 267.05v53.557"/><path id="C" d="M220.784 293.83h-53.557"/><path id="D" d="M194.004 267.03l.022 26.606-26.96-.03"/></defs></svg>
